report_00007_2020-12-11T15:55:29.892Z/network-server-latency/comparison/line/8_vs_9.svg

<svg width="640" height="500" xmlns="http://www.w3.org/2000/svg" xmlns:xlink="http://www.w3.org/1999/xlink"><path fill="#fff" d="M0 0h640v500H0z"/><defs><path id="d" stroke-width=".222" stroke="currentColor" d="M-1-1h2v2h-2z"/><path id="b" stroke-width=".222" stroke="currentColor" d="M0-1.33l-1.33 2h2.66z"/><path id="f" stroke-width=".222" stroke="currentColor" d="M0 1.33L1.265.411.782-1.067l-1.564-.009-.483 1.487z"/><use xlink:href="#b" id="c" stroke="currentColor" transform="rotate(180)"/><use xlink:href="#d" id="e" stroke="currentColor" transform="rotate(45)"/><circle id="a" stroke-width=".222" stroke="currentColor" cx="0" cy="0" r="1"/></defs><g fill="none" color="#000" stroke="currentColor"><path stroke="#000" d="M53.9 435.2h9m552.1 0h-9"/><text transform="translate(45.6 439.1)" stroke="none" fill="#000" font-family="Arial" font-size="12" text-anchor="end"><tspan>3.5</tspan></text></g><g fill="none" color="#000" stroke="currentColor"><path stroke="#000" d="M53.9 360.6h9m552.1 0h-9"/><text transform="translate(45.6 364.5)" stroke="none" fill="#000" font-family="Arial" font-size="12" text-anchor="end"><tspan>4</tspan></text></g><g fill="none" color="#000" stroke="currentColor"><path stroke="#000" d="M53.9 286h9m552.1 0h-9"/><text transform="translate(45.6 289.9)" stroke="none" fill="#000" font-family="Arial" font-size="12" text-anchor="end"><tspan>4.5</tspan></text></g><g fill="none" color="#000" stroke="currentColor"><path stroke="#000" d="M53.9 211.4h9m552.1 0h-9"/><text transform="translate(45.6 215.3)" stroke="none" fill="#000" font-family="Arial" font-size="12" text-anchor="end"><tspan>5</tspan></text></g><g fill="none" color="#000" stroke="currentColor"><path stroke="#000" d="M53.9 136.8h9m552.1 0h-9"/><text transform="translate(45.6 140.7)" stroke="none" fill="#000" font-family="Arial" font-size="12" text-anchor="end"><tspan>5.5</tspan></text></g><g fill="none" color="#000" stroke="currentColor"><path stroke="#000" d="M53.9 62.2h9m552.1 0h-9"/><text transform="translate(45.6 66.1)" stroke="none" fill="#000" font-family="Arial" font-size="12" text-anchor="end"><tspan>6</tspan></text></g><g fill="none" color="#000" stroke="currentColor"><path stroke="#000" d="M53.9 446v-9m0-418.9v9"/><text transform="translate(53.9 467.9)" stroke="none" fill="#000" font-family="Arial" font-size="12" text-anchor="middle"><tspan>0</tspan></text></g><g fill="none" color="#000" stroke="currentColor"><path stroke="#000" d="M110.6 446v-9m0-418.9v9"/><text transform="translate(110.6 467.9)" stroke="none" fill="#000" font-family="Arial" font-size="12" text-anchor="middle"><tspan>10</tspan></text></g><g fill="none" color="#000" stroke="currentColor"><path stroke="#000" d="M167.3 446v-9m0-418.9v9"/><text transform="translate(167.3 467.9)" stroke="none" fill="#000" font-family="Arial" font-size="12" text-anchor="middle"><tspan>20</tspan></text></g><g fill="none" color="#000" stroke="currentColor"><path stroke="#000" d="M223.9 446v-9m0-418.9v9"/><text transform="translate(223.9 467.9)" stroke="none" fill="#000" font-family="Arial" font-size="12" text-anchor="middle"><tspan>30</tspan></text></g><g fill="none" color="#000" stroke="currentColor"><path stroke="#000" d="M280.6 446v-9m0-418.9v9"/><text transform="translate(280.6 467.9)" stroke="none" fill="#000" font-family="Arial" font-size="12" text-anchor="middle"><tspan>40</tspan></text></g><g fill="none" color="#000" stroke="currentColor"><path stroke="#000" d="M337.3 446v-9m0-418.9v9"/><text transform="translate(337.3 467.9)" stroke="none" fill="#000" font-family="Arial" font-size="12" text-anchor="middle"><tspan>50</tspan></text></g><g fill="none" color="#000" stroke="currentColor"><path stroke="#000" d="M394 446v-9m0-418.9v9"/><text transform="translate(394 467.9)" stroke="none" fill="#000" font-family="Arial" font-size="12" text-anchor="middle"><tspan>60</tspan></text></g><g fill="none" color="#000" stroke="currentColor"><path stroke="#000" d="M450.6 446v-9m0-418.9v9"/><text transform="translate(450.6 467.9)" stroke="none" fill="#000" font-family="Arial" font-size="12" text-anchor="middle"><tspan>70</tspan></text></g><g fill="none" color="#000" stroke="currentColor"><path stroke="#000" d="M507.3 446v-9m0-418.9v9"/><text transform="translate(507.3 467.9)" stroke="none" fill="#000" font-family="Arial" font-size="12" text-anchor="middle"><tspan>80</tspan></text></g><g fill="none" color="#000" stroke="currentColor"><path stroke="#000" d="M564 446v-9m0-418.9v9"/><text transform="translate(564 467.9)" stroke="none" fill="#000" font-family="Arial" font-size="12" text-anchor="middle"><tspan>90</tspan></text></g><path stroke="#000" d="M53.9 18.1V446H615V18.1H53.9z" fill="none" color="#000"/><text transform="translate(275.6 485.9)" stroke="none" fill="#000" font-family="Arial" font-size="12" text-anchor="end" color="#000"><tspan>pages+cached+noexternal+noimg</tspan></text><path stroke="#9400D3" d="M283.9 482h42.2M53.9 284.6l5.7-68.5 5.6 40.7 5.7 16.9 5.7-81.4 5.6 131.4 5.7-35.5 5.7 1.3 5.6 53.8 5.7-11.8 5.7-9.8 5.6-48.8 5.7-82.6 5.7 149.4 5.6-134.1 5.7-85.6 5.7 189.6 5.7-88.3 5.6 81.3 5.7-13 5.7-1 5.6-34.1 5.7 12.3 5.7-11.9 5.6 95.5 5.7-40.9 5.7-15.3 5.6 10.8 5.7-17.6 5.7-124.1 5.6 109.5 5.7-76.8 5.7 92.1 5.6-31.8 5.7 171.2 5.7-401.2 5.6 185.4 5.7 159.3 5.7-48.1 5.6-39.7 5.7 3.6 5.7-93 5.6-16.4 5.7 154.2 5.7 69.7 5.6-103.3 5.7 63.6 5.7-104 5.6 85.9 5.7-108.8 5.7 203.1 5.7-113.7 5.6-33.7 5.7-38.5 5.7 96.2 5.6-22.4 5.7 58.8 5.7-84.7 5.6-19.8 5.7 67.7 5.7-1.9 5.6-85.8 5.7 70.6 5.7-23 5.6-60.2 5.7 58.8 5.7-24.7 5.6 116.3 5.7-119.9 5.7-24.3 5.6-94.2 5.7 8.8 5.7 204.1 5.6-84.5 5.7-93.1L479 302l5.6-18 5.7 15.3 5.7-12.5 5.6-14.3 5.7 13.8 5.7 19.4 5.6-3.5 5.7 45.6 5.7-27.1 5.7-46.5 5.6-45.9 5.7-7.7 5.7 16.1 5.6 20.9L564 235l5.7 92 5.6-69.6 5.7 3.4 5.7 39.6 5.6-12.6 5.7 32.9 5.7-17.5 5.6 50.2 5.7-31" fill="none" color="#000"/><text transform="translate(575.1 485.9)" stroke="none" fill="#000" font-family="Arial" font-size="12" text-anchor="end" color="#000"><tspan>pages+cached+noexternal+nocss</tspan></text><path stroke="#009E73" d="M583.4 482h42.2M53.9 279.4l5.7-60.5 5.6 63.1 5.7 72.1 5.7-174.6 5.6 65.1 5.7 66.6 5.7 83.2 5.6-119 5.7 20.2 5.7-52.3 5.6 17.4 5.7-27.5 5.7-29.4 5.6 50 5.7 18.7 5.7 8.4 5.7 45.4 5.6-60.6 5.7-144.8 5.7 68.5 5.6 114.9 5.7-93 5.7 4.3 5.6 125.2 5.7 31.2 5.7-148.1 5.6-164.3 5.7 247.1 5.7-88.3 5.6-42.8 5.7 75.6 5.7 42 5.6-16.9 5.7-25.3 5.7-171 5.6 144.7 5.7 12.3 5.7 15.1 5.6 148.8 5.7-23.1 5.7-93.3 5.6 149.5 5.7-196.8 5.7 63.3 5.6 67.2 5.7-21 5.7-14.1 5.6-212.8 5.7 220.6 5.7-1.8L343 285l5.6 2 5.7-36.9 5.7-57.2 5.6 14.1 5.7 201.9 5.7-138 5.6 55.4 5.7-5.2 5.7 40.3 5.6-47.1 5.7 25L411 254l5.6-17.7 5.7 36.3 5.7-90 5.6 69.3 5.7-20.1 5.7 10.3 5.6 178.5 5.7-178 5.7 39.3 5.6-42.9 5.7-4.1 5.7 50.3 5.6-99.5 5.7 5.3 5.7 62.3 5.6-8.2 5.7 110.3 5.7-139.7 5.6 44.8 5.7-9.5 5.7 24.2 5.7 75.3 5.6-99.8 5.7 56 5.7-117.1 5.6 171.6 5.7-47.5 5.7-50.3 5.6 9.9 5.7 81.3 5.7-58.7 5.6.7L598 256l5.7 7.7 5.6-10.8 5.7-29.5" fill="none" color="#000"/><g fill="none" color="#000" stroke="currentColor"><path stroke="#000" d="M53.9 18.1V446H615V18.1H53.9z"/></g></svg>

<?xml version="1.0" encoding="utf-8"  standalone="no"?>
<svg 
 width="640" height="500"
 viewBox="0 0 640 500"
 xmlns="http://www.w3.org/2000/svg"
 xmlns:xlink="http://www.w3.org/1999/xlink"
>

<title>Gnuplot</title>
<desc>Produced by GNUPLOT 5.4 patchlevel 0 </desc>

<g id="gnuplot_canvas">

<rect x="0" y="0" width="640" height="500" fill="#ffffff"/>
<defs>

	<circle id='gpDot' r='0.5' stroke-width='0.5' stroke='currentColor'/>
	<path id='gpPt0' stroke-width='0.222' stroke='currentColor' d='M-1,0 h2 M0,-1 v2'/>
	<path id='gpPt1' stroke-width='0.222' stroke='currentColor' d='M-1,-1 L1,1 M1,-1 L-1,1'/>
	<path id='gpPt2' stroke-width='0.222' stroke='currentColor' d='M-1,0 L1,0 M0,-1 L0,1 M-1,-1 L1,1 M-1,1 L1,-1'/>
	<rect id='gpPt3' stroke-width='0.222' stroke='currentColor' x='-1' y='-1' width='2' height='2'/>
	<rect id='gpPt4' stroke-width='0.222' stroke='currentColor' fill='currentColor' x='-1' y='-1' width='2' height='2'/>
	<circle id='gpPt5' stroke-width='0.222' stroke='currentColor' cx='0' cy='0' r='1'/>
	<use xlink:href='#gpPt5' id='gpPt6' fill='currentColor' stroke='none'/>
	<path id='gpPt7' stroke-width='0.222' stroke='currentColor' d='M0,-1.33 L-1.33,0.67 L1.33,0.67 z'/>
	<use xlink:href='#gpPt7' id='gpPt8' fill='currentColor' stroke='none'/>
	<use xlink:href='#gpPt7' id='gpPt9' stroke='currentColor' transform='rotate(180)'/>
	<use xlink:href='#gpPt9' id='gpPt10' fill='currentColor' stroke='none'/>
	<use xlink:href='#gpPt3' id='gpPt11' stroke='currentColor' transform='rotate(45)'/>
	<use xlink:href='#gpPt11' id='gpPt12' fill='currentColor' stroke='none'/>
	<path id='gpPt13' stroke-width='0.222' stroke='currentColor' d='M0,1.330 L1.265,0.411 L0.782,-1.067 L-0.782,-1.076 L-1.265,0.411 z'/>
	<use xlink:href='#gpPt13' id='gpPt14' fill='currentColor' stroke='none'/>
	<filter id='textbox' filterUnits='objectBoundingBox' x='0' y='0' height='1' width='1'>
	  <feFlood flood-color='#FFFFFF' flood-opacity='1' result='bgnd'/>
	  <feComposite in='SourceGraphic' in2='bgnd' operator='atop'/>
	</filter>
	<filter id='greybox' filterUnits='objectBoundingBox' x='0' y='0' height='1' width='1'>
	  <feFlood flood-color='lightgrey' flood-opacity='1' result='grey'/>
	  <feComposite in='SourceGraphic' in2='grey' operator='atop'/>
	</filter>
</defs>
<g fill="none" color="#FFFFFF" stroke="black" stroke-width="1.00" stroke-linecap="butt" stroke-linejoin="miter">
</g>
<g fill="none" color="black" stroke="currentColor" stroke-width="1.00" stroke-linecap="butt" stroke-linejoin="miter">
	<path stroke='black'  d='M53.9,435.2 L62.9,435.2 M615.0,435.2 L606.0,435.2  '/>	<g transform="translate(45.6,439.1)" stroke="none" fill="black" font-family="Arial" font-size="12.00"  text-anchor="end">
		<text><tspan font-family="Arial" > 3.5</tspan></text>
	</g>
</g>
<g fill="none" color="black" stroke="currentColor" stroke-width="1.00" stroke-linecap="butt" stroke-linejoin="miter">
	<path stroke='black'  d='M53.9,360.6 L62.9,360.6 M615.0,360.6 L606.0,360.6  '/>	<g transform="translate(45.6,364.5)" stroke="none" fill="black" font-family="Arial" font-size="12.00"  text-anchor="end">
		<text><tspan font-family="Arial" > 4</tspan></text>
	</g>
</g>
<g fill="none" color="black" stroke="currentColor" stroke-width="1.00" stroke-linecap="butt" stroke-linejoin="miter">
	<path stroke='black'  d='M53.9,286.0 L62.9,286.0 M615.0,286.0 L606.0,286.0  '/>	<g transform="translate(45.6,289.9)" stroke="none" fill="black" font-family="Arial" font-size="12.00"  text-anchor="end">
		<text><tspan font-family="Arial" > 4.5</tspan></text>
	</g>
</g>
<g fill="none" color="black" stroke="currentColor" stroke-width="1.00" stroke-linecap="butt" stroke-linejoin="miter">
	<path stroke='black'  d='M53.9,211.4 L62.9,211.4 M615.0,211.4 L606.0,211.4  '/>	<g transform="translate(45.6,215.3)" stroke="none" fill="black" font-family="Arial" font-size="12.00"  text-anchor="end">
		<text><tspan font-family="Arial" > 5</tspan></text>
	</g>
</g>
<g fill="none" color="black" stroke="currentColor" stroke-width="1.00" stroke-linecap="butt" stroke-linejoin="miter">
	<path stroke='black'  d='M53.9,136.8 L62.9,136.8 M615.0,136.8 L606.0,136.8  '/>	<g transform="translate(45.6,140.7)" stroke="none" fill="black" font-family="Arial" font-size="12.00"  text-anchor="end">
		<text><tspan font-family="Arial" > 5.5</tspan></text>
	</g>
</g>
<g fill="none" color="black" stroke="currentColor" stroke-width="1.00" stroke-linecap="butt" stroke-linejoin="miter">
	<path stroke='black'  d='M53.9,62.2 L62.9,62.2 M615.0,62.2 L606.0,62.2  '/>	<g transform="translate(45.6,66.1)" stroke="none" fill="black" font-family="Arial" font-size="12.00"  text-anchor="end">
		<text><tspan font-family="Arial" > 6</tspan></text>
	</g>
</g>
<g fill="none" color="black" stroke="currentColor" stroke-width="1.00" stroke-linecap="butt" stroke-linejoin="miter">
	<path stroke='black'  d='M53.9,446.0 L53.9,437.0 M53.9,18.1 L53.9,27.1  '/>	<g transform="translate(53.9,467.9)" stroke="none" fill="black" font-family="Arial" font-size="12.00"  text-anchor="middle">
		<text><tspan font-family="Arial" > 0</tspan></text>
	</g>
</g>
<g fill="none" color="black" stroke="currentColor" stroke-width="1.00" stroke-linecap="butt" stroke-linejoin="miter">
	<path stroke='black'  d='M110.6,446.0 L110.6,437.0 M110.6,18.1 L110.6,27.1  '/>	<g transform="translate(110.6,467.9)" stroke="none" fill="black" font-family="Arial" font-size="12.00"  text-anchor="middle">
		<text><tspan font-family="Arial" > 10</tspan></text>
	</g>
</g>
<g fill="none" color="black" stroke="currentColor" stroke-width="1.00" stroke-linecap="butt" stroke-linejoin="miter">
	<path stroke='black'  d='M167.3,446.0 L167.3,437.0 M167.3,18.1 L167.3,27.1  '/>	<g transform="translate(167.3,467.9)" stroke="none" fill="black" font-family="Arial" font-size="12.00"  text-anchor="middle">
		<text><tspan font-family="Arial" > 20</tspan></text>
	</g>
</g>
<g fill="none" color="black" stroke="currentColor" stroke-width="1.00" stroke-linecap="butt" stroke-linejoin="miter">
	<path stroke='black'  d='M223.9,446.0 L223.9,437.0 M223.9,18.1 L223.9,27.1  '/>	<g transform="translate(223.9,467.9)" stroke="none" fill="black" font-family="Arial" font-size="12.00"  text-anchor="middle">
		<text><tspan font-family="Arial" > 30</tspan></text>
	</g>
</g>
<g fill="none" color="black" stroke="currentColor" stroke-width="1.00" stroke-linecap="butt" stroke-linejoin="miter">
	<path stroke='black'  d='M280.6,446.0 L280.6,437.0 M280.6,18.1 L280.6,27.1  '/>	<g transform="translate(280.6,467.9)" stroke="none" fill="black" font-family="Arial" font-size="12.00"  text-anchor="middle">
		<text><tspan font-family="Arial" > 40</tspan></text>
	</g>
</g>
<g fill="none" color="black" stroke="currentColor" stroke-width="1.00" stroke-linecap="butt" stroke-linejoin="miter">
	<path stroke='black'  d='M337.3,446.0 L337.3,437.0 M337.3,18.1 L337.3,27.1  '/>	<g transform="translate(337.3,467.9)" stroke="none" fill="black" font-family="Arial" font-size="12.00"  text-anchor="middle">
		<text><tspan font-family="Arial" > 50</tspan></text>
	</g>
</g>
<g fill="none" color="black" stroke="currentColor" stroke-width="1.00" stroke-linecap="butt" stroke-linejoin="miter">
	<path stroke='black'  d='M394.0,446.0 L394.0,437.0 M394.0,18.1 L394.0,27.1  '/>	<g transform="translate(394.0,467.9)" stroke="none" fill="black" font-family="Arial" font-size="12.00"  text-anchor="middle">
		<text><tspan font-family="Arial" > 60</tspan></text>
	</g>
</g>
<g fill="none" color="black" stroke="currentColor" stroke-width="1.00" stroke-linecap="butt" stroke-linejoin="miter">
	<path stroke='black'  d='M450.6,446.0 L450.6,437.0 M450.6,18.1 L450.6,27.1  '/>	<g transform="translate(450.6,467.9)" stroke="none" fill="black" font-family="Arial" font-size="12.00"  text-anchor="middle">
		<text><tspan font-family="Arial" > 70</tspan></text>
	</g>
</g>
<g fill="none" color="black" stroke="currentColor" stroke-width="1.00" stroke-linecap="butt" stroke-linejoin="miter">
	<path stroke='black'  d='M507.3,446.0 L507.3,437.0 M507.3,18.1 L507.3,27.1  '/>	<g transform="translate(507.3,467.9)" stroke="none" fill="black" font-family="Arial" font-size="12.00"  text-anchor="middle">
		<text><tspan font-family="Arial" > 80</tspan></text>
	</g>
</g>
<g fill="none" color="black" stroke="currentColor" stroke-width="1.00" stroke-linecap="butt" stroke-linejoin="miter">
	<path stroke='black'  d='M564.0,446.0 L564.0,437.0 M564.0,18.1 L564.0,27.1  '/>	<g transform="translate(564.0,467.9)" stroke="none" fill="black" font-family="Arial" font-size="12.00"  text-anchor="middle">
		<text><tspan font-family="Arial" > 90</tspan></text>
	</g>
</g>
<g fill="none" color="black" stroke="currentColor" stroke-width="1.00" stroke-linecap="butt" stroke-linejoin="miter">
</g>
<g fill="none" color="black" stroke="currentColor" stroke-width="1.00" stroke-linecap="butt" stroke-linejoin="miter">
	<path stroke='black'  d='M53.9,18.1 L53.9,446.0 L615.0,446.0 L615.0,18.1 L53.9,18.1 Z  '/></g>
<g fill="none" color="black" stroke="currentColor" stroke-width="1.00" stroke-linecap="butt" stroke-linejoin="miter">
</g>
	<g id="gnuplot_plot_1" ><title>pages+cached+noexternal+noimg</title>
<g fill="none" color="black" stroke="currentColor" stroke-width="1.00" stroke-linecap="butt" stroke-linejoin="miter">
	<g transform="translate(275.6,485.9)" stroke="none" fill="black" font-family="Arial" font-size="12.00"  text-anchor="end">
		<text><tspan font-family="Arial" >pages+cached+noexternal+noimg</tspan></text>
	</g>
</g>
<g fill="none" color="black" stroke="currentColor" stroke-width="1.00" stroke-linecap="butt" stroke-linejoin="miter">
	<path stroke='rgb(148,   0, 211)'  d='M283.9,482.0 L326.1,482.0 M53.9,284.6 L59.6,216.1 L65.2,256.8 L70.9,273.7 L76.6,192.3 L82.2,323.7
		L87.9,288.2 L93.6,289.5 L99.2,343.3 L104.9,331.5 L110.6,321.7 L116.2,272.9 L121.9,190.3 L127.6,339.7
		L133.2,205.6 L138.9,120.0 L144.6,309.6 L150.3,221.3 L155.9,302.6 L161.6,289.6 L167.3,288.6 L172.9,254.5
		L178.6,266.8 L184.3,254.9 L189.9,350.4 L195.6,309.5 L201.3,294.2 L206.9,305.0 L212.6,287.4 L218.3,163.3
		L223.9,272.8 L229.6,196.0 L235.3,288.1 L240.9,256.3 L246.6,427.5 L252.3,26.3 L257.9,211.7 L263.6,371.0
		L269.3,322.9 L274.9,283.2 L280.6,286.8 L286.3,193.8 L291.9,177.4 L297.6,331.6 L303.3,401.3 L308.9,298.0
		L314.6,361.6 L320.3,257.6 L325.9,343.5 L331.6,234.7 L337.3,437.8 L343.0,324.1 L348.6,290.4 L354.3,251.9
		L360.0,348.1 L365.6,325.7 L371.3,384.5 L377.0,299.8 L382.6,280.0 L388.3,347.7 L394.0,345.8 L399.6,260.0
		L405.3,330.6 L411.0,307.6 L416.6,247.4 L422.3,306.2 L428.0,281.5 L433.6,397.8 L439.3,277.9 L445.0,253.6
		L450.6,159.4 L456.3,168.2 L462.0,372.3 L467.6,287.8 L473.3,194.7 L479.0,302.0 L484.6,284.0 L490.3,299.3
		L496.0,286.8 L501.6,272.5 L507.3,286.3 L513.0,305.7 L518.6,302.2 L524.3,347.8 L530.0,320.7 L535.7,274.2
		L541.3,228.3 L547.0,220.6 L552.7,236.7 L558.3,257.6 L564.0,235.0 L569.7,327.0 L575.3,257.4 L581.0,260.8
		L586.7,300.4 L592.3,287.8 L598.0,320.7 L603.7,303.2 L609.3,353.4 L615.0,322.4  '/></g>
	</g>
	<g id="gnuplot_plot_2" ><title>pages+cached+noexternal+nocss</title>
<g fill="none" color="black" stroke="currentColor" stroke-width="1.00" stroke-linecap="butt" stroke-linejoin="miter">
	<g transform="translate(575.1,485.9)" stroke="none" fill="black" font-family="Arial" font-size="12.00"  text-anchor="end">
		<text><tspan font-family="Arial" >pages+cached+noexternal+nocss</tspan></text>
	</g>
</g>
<g fill="none" color="black" stroke="currentColor" stroke-width="1.00" stroke-linecap="butt" stroke-linejoin="miter">
	<path stroke='rgb(  0, 158, 115)'  d='M583.4,482.0 L625.6,482.0 M53.9,279.4 L59.6,218.9 L65.2,282.0 L70.9,354.1 L76.6,179.5 L82.2,244.6
		L87.9,311.2 L93.6,394.4 L99.2,275.4 L104.9,295.6 L110.6,243.3 L116.2,260.7 L121.9,233.2 L127.6,203.8
		L133.2,253.8 L138.9,272.5 L144.6,280.9 L150.3,326.3 L155.9,265.7 L161.6,120.9 L167.3,189.4 L172.9,304.3
		L178.6,211.3 L184.3,215.6 L189.9,340.8 L195.6,372.0 L201.3,223.9 L206.9,59.6 L212.6,306.7 L218.3,218.4
		L223.9,175.6 L229.6,251.2 L235.3,293.2 L240.9,276.3 L246.6,251.0 L252.3,80.0 L257.9,224.7 L263.6,237.0
		L269.3,252.1 L274.9,400.9 L280.6,377.8 L286.3,284.5 L291.9,434.0 L297.6,237.2 L303.3,300.5 L308.9,367.7
		L314.6,346.7 L320.3,332.6 L325.9,119.8 L331.6,340.4 L337.3,338.6 L343.0,285.0 L348.6,287.0 L354.3,250.1
		L360.0,192.9 L365.6,207.0 L371.3,408.9 L377.0,270.9 L382.6,326.3 L388.3,321.1 L394.0,361.4 L399.6,314.3
		L405.3,339.3 L411.0,254.0 L416.6,236.3 L422.3,272.6 L428.0,182.6 L433.6,251.9 L439.3,231.8 L445.0,242.1
		L450.6,420.6 L456.3,242.6 L462.0,281.9 L467.6,239.0 L473.3,234.9 L479.0,285.2 L484.6,185.7 L490.3,191.0
		L496.0,253.3 L501.6,245.1 L507.3,355.4 L513.0,215.7 L518.6,260.5 L524.3,251.0 L530.0,275.2 L535.7,350.5
		L541.3,250.7 L547.0,306.7 L552.7,189.6 L558.3,361.2 L564.0,313.7 L569.7,263.4 L575.3,273.3 L581.0,354.6
		L586.7,295.9 L592.3,296.6 L598.0,256.0 L603.7,263.7 L609.3,252.9 L615.0,223.4  '/></g>
	</g>
<g fill="none" color="#FFFFFF" stroke="rgb(  0, 158, 115)" stroke-width="2.00" stroke-linecap="butt" stroke-linejoin="miter">
</g>
<g fill="none" color="black" stroke="currentColor" stroke-width="2.00" stroke-linecap="butt" stroke-linejoin="miter">
</g>
<g fill="none" color="black" stroke="black" stroke-width="1.00" stroke-linecap="butt" stroke-linejoin="miter">
</g>
<g fill="none" color="black" stroke="currentColor" stroke-width="1.00" stroke-linecap="butt" stroke-linejoin="miter">
	<path stroke='black'  d='M53.9,18.1 L53.9,446.0 L615.0,446.0 L615.0,18.1 L53.9,18.1 Z  '/></g>
<g fill="none" color="black" stroke="currentColor" stroke-width="1.00" stroke-linecap="butt" stroke-linejoin="miter">
</g>
</g>
</svg>
